X: 704
T: Jump Jim Crow
C:Old-Time
B: jims roots
M:C|
L:1/8
Q: 1/4=100
K:D
V:1 
|: ef ||"D"fAde fgaf | "G"gfef gbag | "D"fedA BcdB | "A"AGFE "D"D2:|
|:"D"[FA]([GA] ||[GA])FDC DFAF | "G"BG[BG][FG,] [F2G,] [GA]([GB] | [GB])G[GB]D BdBG | "A"AGFE "D"D2 :|
% abcbook-tune_id 6298c25dadfd6ad6c6d6d354


% abcbook-boost 0
% abcbook-tablature 
% abcbook-transpose 
% abcbook-lastupdated 1654178399370
% abcbook-soundfonts 
% abcbook-repeats 1


